X: 1208
T: Across the Sea to Erin
B: australian traditional tunes wiki
B: kameruka bush dance
M:6/8
L:1/8
R: Jig
Q: 3/8=100
K:G
V:1 
|:"G"B2B BAB|d2B BAB|"C"c2eg2e|"G"d2B BAB|
"D7"c2A AGA|"G" B2G GFG|"D7"A2ed2c|BAF "G"G3:|
|:"G"d2c Bcd|"C"e2f g2a|"G"b2a gfe|d2c Bcd|
"C"e2e ecA|"G"d2d dBG|1"Am"c2A "G"B2G|"D7"A2G FED:|2"D7"A2ed2c|BAF "G"G3||
% abcbook-tune_id 6342d53a534db0c1bebb8be9


% abcbook-boost 0
% abcbook-tablature 
% abcbook-transpose 
% abcbook-lastupdated 1666262603915
% abcbook-soundfonts 
% abcbook-repeats 3
% NFF Book 2014

